Newaita-dark/mimetypes/32/office-database.svg

<svg height="32" viewBox="0 0 32 32" width="32" xmlns="http://www.w3.org/2000/svg" xmlns:xlink="http://www.w3.org/1999/xlink"><linearGradient id="a" gradientUnits="userSpaceOnUse" x1="16.538044" x2="16.538044" y1="28.033936" y2="29.35698000003"><stop offset="0" stop-opacity=".27451"/><stop offset="1" stop-opacity="0"/></linearGradient><linearGradient id="b"><stop offset="0" stop-opacity=".313726"/><stop offset=".222222" stop-opacity=".27451"/><stop offset="1" stop-opacity="0"/></linearGradient><radialGradient id="c" cx="450.908936" cy="189.579361" gradientTransform="matrix(.00000017 -.0781325 -.140638 -.0000001 49.484569 63.595333)" gradientUnits="userSpaceOnUse" r="21.166656" xlink:href="#b"/><radialGradient id="d" cx="450.908936" cy="189.579361" gradientTransform="matrix(-.00000017 .0781325 .140638 .0000001 -18.393049 -7.527479)" gradientUnits="userSpaceOnUse" r="21.166656" xlink:href="#b"/><radialGradient id="e" cx="450.908936" cy="189.579361" gradientTransform="matrix(-.00000017 -.0781325 .140638 -.0000001 -18.393049 63.595333)" gradientUnits="userSpaceOnUse" r="21.166656" xlink:href="#b"/><radialGradient id="f" cx="450.908936" cy="189.579361" gradientTransform="matrix(.00000017 .0781325 -.140638 .0000001 49.484567 -7.527479)" gradientUnits="userSpaceOnUse" r="21.166656" xlink:href="#b"/><linearGradient id="g" gradientUnits="userSpaceOnUse" x1="15.54576375006" x2="15.54576375006" y1="22.74175899997" y2="8.84980100002"><stop offset="0" stop-color="#9e9e9e"/><stop offset="1" stop-color="#bdbdbd"/></linearGradient><linearGradient id="h" gradientUnits="userSpaceOnUse" x1="248.708344" x2="248.708344" xlink:href="#b" y1="148.833328" y2="-73.416664"/><linearGradient id="i"><stop offset="0" stop-color="#bdbdbd"/><stop offset=".5" stop-color="#e0e0e0"/><stop offset="1" stop-color="#bdbdbd"/></linearGradient><linearGradient id="j" gradientUnits="userSpaceOnUse" x1="5.29217449998" x2="25.7993515" xlink:href="#i" y1="24.064803" y2="24.064803"/><linearGradient id="k" gradientUnits="userSpaceOnUse" x1="5.19841549998" x2="25.7993515" xlink:href="#i" y1="6.86523499997" y2="6.86523600006"/><linearGradient id="l" gradientUnits="userSpaceOnUse" x1="5.29217449998" x2="25.7993515" xlink:href="#i" y1="15.46501899998" y2="15.46501899998"/><path d="m7.9375 28.035156h15.214844v1.320313h-15.214844zm0 0" fill="url(#a)"/><path d="m23.152344 28.035156h2.648437v-1.324218h-2.648437zm0 0" fill="url(#c)"/><path d="m7.9375 28.035156h-2.644531v1.320313h2.644531zm0 0" fill="url(#d)"/><path d="m7.9375 28.035156h-2.644531v-1.324218h2.644531zm0 0" fill="url(#e)"/><path d="m23.152344 28.035156h2.648437v1.320313h-2.648437zm0 0" fill="url(#f)"/><path d="m5.292969 26.195312v.515626c0 .734374.589843 1.324218 1.320312 1.324218h17.863281c.734376 0 1.324219-.589844 1.324219-1.324218v-.515626c0 .734376-.589843 1.324219-1.324219 1.324219h-17.863281c-.730469 0-1.320312-.589843-1.320312-1.324219zm0 0" fill-opacity=".235294"/><path d="m6.613281 8.851562h17.863281v13.890626h-17.863281zm0 0" fill="url(#g)"/><path d="m105.802396-73.388523h285.785209v222.228778h-285.785209zm0 0" fill="url(#h)" stroke="#212121" stroke-linecap="round" stroke-linejoin="round" stroke-width="3" transform="matrix(.062506 0 0 .062506 0 13.438783)"/><path d="m6.613281 20.09375h17.863281c.730469 0 1.324219.59375 1.324219 1.324219v5.292969c0 .730468-.59375 1.324218-1.324219 1.324218h-17.863281c-.730469 0-1.320312-.59375-1.320312-1.324218v-5.292969c0-.730469.589843-1.324219 1.320312-1.324219zm0 0" fill="url(#j)"/><path d="m6.613281 2.894531h17.863281c.730469 0 1.324219.59375 1.324219 1.324219v5.292969c0 .730469-.59375 1.324219-1.324219 1.324219h-17.863281c-.730469 0-1.320312-.59375-1.320312-1.324219v-5.292969c0-.730469.589843-1.324219 1.320312-1.324219zm0 0" fill="url(#k)"/><path d="m6.613281 11.496094h17.863281c.730469 0 1.324219.59375 1.324219 1.324218v5.289063c0 .734375-.59375 1.324219-1.324219 1.324219h-17.863281c-.730469 0-1.320312-.589844-1.320312-1.324219v-5.289063c0-.730468.589843-1.324218 1.320312-1.324218zm0 0" fill="url(#l)"/><path d="m6.613281 20.09375c-.730469 0-1.320312.59375-1.320312 1.324219v.332031c0-.734375.589843-1.324219 1.320312-1.324219h17.863281c.734376 0 1.324219.589844 1.324219 1.324219v-.332031c0-.730469-.589843-1.324219-1.324219-1.324219zm0 0" fill="#fff"/><path d="m6.613281 2.894531c-.730469 0-1.320312.589844-1.320312 1.324219v.332031c0-.734375.589843-1.324219 1.320312-1.324219h17.863281c.734376 0 1.324219.589844 1.324219 1.324219v-.332031c0-.734375-.589843-1.324219-1.324219-1.324219zm0 0" fill="#fff"/><path d="m6.613281 11.496094c-.730469 0-1.320312.589844-1.320312 1.324218v.328126c0-.730469.589843-1.320313 1.320312-1.320313h17.863281c.734376 0 1.324219.589844 1.324219 1.320313v-.328126c0-.734374-.589843-1.324218-1.324219-1.324218zm0 0" fill="#fff"/><g fill-opacity=".235294"><path d="m5.292969 26.460938v.25c0 .734374.589843 1.324218 1.320312 1.324218h17.863281c.734376 0 1.324219-.589844 1.324219-1.324218v-.25c0 .734374-.589843 1.324218-1.324219 1.324218h-17.863281c-.730469 0-1.320312-.589844-1.320312-1.324218zm0 0"/><path d="m5.292969 9.261719v.25c0 .734375.589843 1.324219 1.320312 1.324219h17.863281c.734376 0 1.324219-.589844 1.324219-1.324219v-.25c0 .734375-.589843 1.324219-1.324219 1.324219h-17.863281c-.730469 0-1.320312-.589844-1.320312-1.324219zm0 0"/><path d="m5.292969 17.863281v.246094c0 .734375.589843 1.324219 1.320312 1.324219h17.863281c.734376 0 1.324219-.589844 1.324219-1.324219v-.246094c0 .734375-.589843 1.324219-1.324219 1.324219h-17.863281c-.730469 0-1.320312-.589844-1.320312-1.324219zm0 0"/></g><path d="m105.802396 106.469301h285.785209c11.686384 0 21.185477 9.499093 21.185477 21.185477v84.679414c0 11.686384-9.499093 21.185477-21.185477 21.185477h-285.785209c-11.686384 0-21.122982-9.499093-21.122982-21.185477v-84.679414c0-11.686384 9.436598-21.185477 21.122982-21.185477zm0 0" fill="none" stroke="#212121" stroke-linecap="round" stroke-linejoin="round" stroke-width="3" transform="matrix(.062506 0 0 .062506 0 13.438783)"/><path d="m105.802396-168.691922h285.785209c11.686384 0 21.185477 9.499093 21.185477 21.185477v84.679413c0 11.686384-9.499093 21.185477-21.185477 21.185477h-285.785209c-11.686384 0-21.122982-9.499093-21.122982-21.185477v-84.679413c0-11.686384 9.436598-21.185477 21.122982-21.185477zm0 0" fill="none" stroke="#212121" stroke-linecap="round" stroke-linejoin="round" stroke-width="3" transform="matrix(.062506 0 0 .062506 0 13.438783)"/><path d="m105.802396-31.080063h285.785209c11.686384 0 21.185477 9.499092 21.185477 21.185476v84.61692c0 11.748878-9.499093 21.185477-21.185477 21.185477h-285.785209c-11.686384 0-21.122982-9.436599-21.122982-21.185477v-84.61692c0-11.686384 9.436598-21.185476 21.122982-21.185476zm0 0" fill="none" stroke="#212121" stroke-linecap="round" stroke-linejoin="round" stroke-width="3" transform="matrix(.062506 0 0 .062506 0 13.438783)"/></svg>

<?xml version="1.0" encoding="UTF-8"?>
<svg xmlns="http://www.w3.org/2000/svg" xmlns:xlink="http://www.w3.org/1999/xlink" width="32px" height="32px" viewBox="0 0 32 32" version="1.1">
<defs>
<linearGradient id="linear0" gradientUnits="userSpaceOnUse" x1="254" y1="233.5" x2="254" y2="254.666672" gradientTransform="matrix(0.062506,0,0,0.062506,0.66152,13.438785)">
<stop offset="0" style="stop-color:rgb(0%,0%,0%);stop-opacity:0.27451;"/>
<stop offset="1" style="stop-color:rgb(0%,0%,0%);stop-opacity:0;"/>
</linearGradient>
<radialGradient id="radial0" gradientUnits="userSpaceOnUse" cx="450.908936" cy="189.579361" fx="450.908936" fy="189.579361" r="21.166656" gradientTransform="matrix(0.00000017417,-0.0781325,-0.140638,-0.000000101539,49.484569,63.595333)">
<stop offset="0" style="stop-color:rgb(0%,0%,0%);stop-opacity:0.313726;"/>
<stop offset="0.222222" style="stop-color:rgb(0%,0%,0%);stop-opacity:0.27451;"/>
<stop offset="1" style="stop-color:rgb(0%,0%,0%);stop-opacity:0;"/>
</radialGradient>
<radialGradient id="radial1" gradientUnits="userSpaceOnUse" cx="450.908936" cy="189.579361" fx="450.908936" fy="189.579361" r="21.166656" gradientTransform="matrix(-0.00000017417,0.0781325,0.140638,0.000000101539,-18.393049,-7.527479)">
<stop offset="0" style="stop-color:rgb(0%,0%,0%);stop-opacity:0.313726;"/>
<stop offset="0.222222" style="stop-color:rgb(0%,0%,0%);stop-opacity:0.27451;"/>
<stop offset="1" style="stop-color:rgb(0%,0%,0%);stop-opacity:0;"/>
</radialGradient>
<radialGradient id="radial2" gradientUnits="userSpaceOnUse" cx="450.908936" cy="189.579361" fx="450.908936" fy="189.579361" r="21.166656" gradientTransform="matrix(-0.00000017417,-0.0781325,0.140638,-0.000000101539,-18.393049,63.595333)">
<stop offset="0" style="stop-color:rgb(0%,0%,0%);stop-opacity:0.313726;"/>
<stop offset="0.222222" style="stop-color:rgb(0%,0%,0%);stop-opacity:0.27451;"/>
<stop offset="1" style="stop-color:rgb(0%,0%,0%);stop-opacity:0;"/>
</radialGradient>
<radialGradient id="radial3" gradientUnits="userSpaceOnUse" cx="450.908936" cy="189.579361" fx="450.908936" fy="189.579361" r="21.166656" gradientTransform="matrix(0.00000017417,0.0781325,-0.140638,0.000000101539,49.484567,-7.527479)">
<stop offset="0" style="stop-color:rgb(0%,0%,0%);stop-opacity:0.313726;"/>
<stop offset="0.222222" style="stop-color:rgb(0%,0%,0%);stop-opacity:0.27451;"/>
<stop offset="1" style="stop-color:rgb(0%,0%,0%);stop-opacity:0;"/>
</radialGradient>
<linearGradient id="linear1" gradientUnits="userSpaceOnUse" x1="248.708344" y1="148.833328" x2="248.708344" y2="-73.416664" gradientTransform="matrix(0.062506,0,0,0.062506,0,13.438783)">
<stop offset="0" style="stop-color:rgb(61.960787%,61.960787%,61.960787%);stop-opacity:1;"/>
<stop offset="1" style="stop-color:rgb(74.117649%,74.117649%,74.117649%);stop-opacity:1;"/>
</linearGradient>
<linearGradient id="linear2" gradientUnits="userSpaceOnUse" x1="248.708344" y1="148.833328" x2="248.708344" y2="-73.416664" >
<stop offset="0" style="stop-color:rgb(0%,0%,0%);stop-opacity:0.313726;"/>
<stop offset="0.222222" style="stop-color:rgb(0%,0%,0%);stop-opacity:0.27451;"/>
<stop offset="1" style="stop-color:rgb(0%,0%,0%);stop-opacity:0;"/>
</linearGradient>
<linearGradient id="linear3" gradientUnits="userSpaceOnUse" x1="84.666664" y1="170" x2="412.75" y2="170" gradientTransform="matrix(0.062506,0,0,0.062506,0,13.438783)">
<stop offset="0" style="stop-color:rgb(74.117649%,74.117649%,74.117649%);stop-opacity:1;"/>
<stop offset="0.5" style="stop-color:rgb(87.843138%,87.843138%,87.843138%);stop-opacity:1;"/>
<stop offset="1" style="stop-color:rgb(74.117649%,74.117649%,74.117649%);stop-opacity:1;"/>
</linearGradient>
<linearGradient id="linear4" gradientUnits="userSpaceOnUse" x1="83.166664" y1="-105.166672" x2="412.75" y2="-105.166656" gradientTransform="matrix(0.062506,0,0,0.062506,0,13.438783)">
<stop offset="0" style="stop-color:rgb(74.117649%,74.117649%,74.117649%);stop-opacity:1;"/>
<stop offset="0.5" style="stop-color:rgb(87.843138%,87.843138%,87.843138%);stop-opacity:1;"/>
<stop offset="1" style="stop-color:rgb(74.117649%,74.117649%,74.117649%);stop-opacity:1;"/>
</linearGradient>
<linearGradient id="linear5" gradientUnits="userSpaceOnUse" x1="84.666664" y1="32.416664" x2="412.75" y2="32.416664" gradientTransform="matrix(0.062506,0,0,0.062506,0,13.438783)">
<stop offset="0" style="stop-color:rgb(74.117649%,74.117649%,74.117649%);stop-opacity:1;"/>
<stop offset="0.5" style="stop-color:rgb(87.843138%,87.843138%,87.843138%);stop-opacity:1;"/>
<stop offset="1" style="stop-color:rgb(74.117649%,74.117649%,74.117649%);stop-opacity:1;"/>
</linearGradient>
</defs>
<g id="surface1">
<path style=" stroke:none;fill-rule:nonzero;fill:url(#linear0);" d="M 7.9375 28.035156 L 23.152344 28.035156 L 23.152344 29.355469 L 7.9375 29.355469 Z M 7.9375 28.035156 "/>
<path style=" stroke:none;fill-rule:nonzero;fill:url(#radial0);" d="M 23.152344 28.035156 L 25.800781 28.035156 L 25.800781 26.710938 L 23.152344 26.710938 Z M 23.152344 28.035156 "/>
<path style=" stroke:none;fill-rule:nonzero;fill:url(#radial1);" d="M 7.9375 28.035156 L 5.292969 28.035156 L 5.292969 29.355469 L 7.9375 29.355469 Z M 7.9375 28.035156 "/>
<path style=" stroke:none;fill-rule:nonzero;fill:url(#radial2);" d="M 7.9375 28.035156 L 5.292969 28.035156 L 5.292969 26.710938 L 7.9375 26.710938 Z M 7.9375 28.035156 "/>
<path style=" stroke:none;fill-rule:nonzero;fill:url(#radial3);" d="M 23.152344 28.035156 L 25.800781 28.035156 L 25.800781 29.355469 L 23.152344 29.355469 Z M 23.152344 28.035156 "/>
<path style=" stroke:none;fill-rule:nonzero;fill:rgb(0%,0%,0%);fill-opacity:0.235294;" d="M 5.292969 26.195312 L 5.292969 26.710938 C 5.292969 27.445312 5.882812 28.035156 6.613281 28.035156 L 24.476562 28.035156 C 25.210938 28.035156 25.800781 27.445312 25.800781 26.710938 L 25.800781 26.195312 C 25.800781 26.929688 25.210938 27.519531 24.476562 27.519531 L 6.613281 27.519531 C 5.882812 27.519531 5.292969 26.929688 5.292969 26.195312 Z M 5.292969 26.195312 "/>
<path style=" stroke:none;fill-rule:nonzero;fill:url(#linear1);" d="M 6.613281 8.851562 L 24.476562 8.851562 L 24.476562 22.742188 L 6.613281 22.742188 Z M 6.613281 8.851562 "/>
<path style="fill-rule:nonzero;fill:url(#linear2);stroke-width:3;stroke-linecap:round;stroke-linejoin:round;stroke:rgb(12.941177%,12.941177%,12.941177%);stroke-opacity:1;stroke-miterlimit:4;" d="M 105.802396 -73.388523 L 391.587605 -73.388523 L 391.587605 148.840255 L 105.802396 148.840255 Z M 105.802396 -73.388523 " transform="matrix(0.062506,0,0,0.062506,0,13.438783)"/>
<path style=" stroke:none;fill-rule:nonzero;fill:url(#linear3);" d="M 6.613281 20.09375 L 24.476562 20.09375 C 25.207031 20.09375 25.800781 20.6875 25.800781 21.417969 L 25.800781 26.710938 C 25.800781 27.441406 25.207031 28.035156 24.476562 28.035156 L 6.613281 28.035156 C 5.882812 28.035156 5.292969 27.441406 5.292969 26.710938 L 5.292969 21.417969 C 5.292969 20.6875 5.882812 20.09375 6.613281 20.09375 Z M 6.613281 20.09375 "/>
<path style=" stroke:none;fill-rule:nonzero;fill:url(#linear4);" d="M 6.613281 2.894531 L 24.476562 2.894531 C 25.207031 2.894531 25.800781 3.488281 25.800781 4.21875 L 25.800781 9.511719 C 25.800781 10.242188 25.207031 10.835938 24.476562 10.835938 L 6.613281 10.835938 C 5.882812 10.835938 5.292969 10.242188 5.292969 9.511719 L 5.292969 4.21875 C 5.292969 3.488281 5.882812 2.894531 6.613281 2.894531 Z M 6.613281 2.894531 "/>
<path style=" stroke:none;fill-rule:nonzero;fill:url(#linear5);" d="M 6.613281 11.496094 L 24.476562 11.496094 C 25.207031 11.496094 25.800781 12.089844 25.800781 12.820312 L 25.800781 18.109375 C 25.800781 18.84375 25.207031 19.433594 24.476562 19.433594 L 6.613281 19.433594 C 5.882812 19.433594 5.292969 18.84375 5.292969 18.109375 L 5.292969 12.820312 C 5.292969 12.089844 5.882812 11.496094 6.613281 11.496094 Z M 6.613281 11.496094 "/>
<path style=" stroke:none;fill-rule:nonzero;fill:rgb(100%,100%,100%);fill-opacity:1;" d="M 6.613281 20.09375 C 5.882812 20.09375 5.292969 20.6875 5.292969 21.417969 L 5.292969 21.75 C 5.292969 21.015625 5.882812 20.425781 6.613281 20.425781 L 24.476562 20.425781 C 25.210938 20.425781 25.800781 21.015625 25.800781 21.75 L 25.800781 21.417969 C 25.800781 20.6875 25.210938 20.09375 24.476562 20.09375 Z M 6.613281 20.09375 "/>
<path style=" stroke:none;fill-rule:nonzero;fill:rgb(100%,100%,100%);fill-opacity:1;" d="M 6.613281 2.894531 C 5.882812 2.894531 5.292969 3.484375 5.292969 4.21875 L 5.292969 4.550781 C 5.292969 3.816406 5.882812 3.226562 6.613281 3.226562 L 24.476562 3.226562 C 25.210938 3.226562 25.800781 3.816406 25.800781 4.550781 L 25.800781 4.21875 C 25.800781 3.484375 25.210938 2.894531 24.476562 2.894531 Z M 6.613281 2.894531 "/>
<path style=" stroke:none;fill-rule:nonzero;fill:rgb(100%,100%,100%);fill-opacity:1;" d="M 6.613281 11.496094 C 5.882812 11.496094 5.292969 12.085938 5.292969 12.820312 L 5.292969 13.148438 C 5.292969 12.417969 5.882812 11.828125 6.613281 11.828125 L 24.476562 11.828125 C 25.210938 11.828125 25.800781 12.417969 25.800781 13.148438 L 25.800781 12.820312 C 25.800781 12.085938 25.210938 11.496094 24.476562 11.496094 Z M 6.613281 11.496094 "/>
<path style=" stroke:none;fill-rule:nonzero;fill:rgb(0%,0%,0%);fill-opacity:0.235294;" d="M 5.292969 26.460938 L 5.292969 26.710938 C 5.292969 27.445312 5.882812 28.035156 6.613281 28.035156 L 24.476562 28.035156 C 25.210938 28.035156 25.800781 27.445312 25.800781 26.710938 L 25.800781 26.460938 C 25.800781 27.195312 25.210938 27.785156 24.476562 27.785156 L 6.613281 27.785156 C 5.882812 27.785156 5.292969 27.195312 5.292969 26.460938 Z M 5.292969 26.460938 "/>
<path style=" stroke:none;fill-rule:nonzero;fill:rgb(0%,0%,0%);fill-opacity:0.235294;" d="M 5.292969 9.261719 L 5.292969 9.511719 C 5.292969 10.246094 5.882812 10.835938 6.613281 10.835938 L 24.476562 10.835938 C 25.210938 10.835938 25.800781 10.246094 25.800781 9.511719 L 25.800781 9.261719 C 25.800781 9.996094 25.210938 10.585938 24.476562 10.585938 L 6.613281 10.585938 C 5.882812 10.585938 5.292969 9.996094 5.292969 9.261719 Z M 5.292969 9.261719 "/>
<path style=" stroke:none;fill-rule:nonzero;fill:rgb(0%,0%,0%);fill-opacity:0.235294;" d="M 5.292969 17.863281 L 5.292969 18.109375 C 5.292969 18.84375 5.882812 19.433594 6.613281 19.433594 L 24.476562 19.433594 C 25.210938 19.433594 25.800781 18.84375 25.800781 18.109375 L 25.800781 17.863281 C 25.800781 18.597656 25.210938 19.1875 24.476562 19.1875 L 6.613281 19.1875 C 5.882812 19.1875 5.292969 18.597656 5.292969 17.863281 Z M 5.292969 17.863281 "/>
<path style="fill:none;stroke-width:3;stroke-linecap:round;stroke-linejoin:round;stroke:rgb(12.941177%,12.941177%,12.941177%);stroke-opacity:1;stroke-miterlimit:4;" d="M 105.802396 106.469301 L 391.587605 106.469301 C 403.273989 106.469301 412.773082 115.968394 412.773082 127.654778 L 412.773082 212.334192 C 412.773082 224.020576 403.273989 233.519669 391.587605 233.519669 L 105.802396 233.519669 C 94.116012 233.519669 84.679414 224.020576 84.679414 212.334192 L 84.679414 127.654778 C 84.679414 115.968394 94.116012 106.469301 105.802396 106.469301 Z M 105.802396 106.469301 " transform="matrix(0.062506,0,0,0.062506,0,13.438783)"/>
<path style="fill:none;stroke-width:3;stroke-linecap:round;stroke-linejoin:round;stroke:rgb(12.941177%,12.941177%,12.941177%);stroke-opacity:1;stroke-miterlimit:4;" d="M 105.802396 -168.691922 L 391.587605 -168.691922 C 403.273989 -168.691922 412.773082 -159.192829 412.773082 -147.506445 L 412.773082 -62.827032 C 412.773082 -51.140648 403.273989 -41.641555 391.587605 -41.641555 L 105.802396 -41.641555 C 94.116012 -41.641555 84.679414 -51.140648 84.679414 -62.827032 L 84.679414 -147.506445 C 84.679414 -159.192829 94.116012 -168.691922 105.802396 -168.691922 Z M 105.802396 -168.691922 " transform="matrix(0.062506,0,0,0.062506,0,13.438783)"/>
<path style="fill:none;stroke-width:3;stroke-linecap:round;stroke-linejoin:round;stroke:rgb(12.941177%,12.941177%,12.941177%);stroke-opacity:1;stroke-miterlimit:4;" d="M 105.802396 -31.080063 L 391.587605 -31.080063 C 403.273989 -31.080063 412.773082 -21.580971 412.773082 -9.894587 L 412.773082 74.722333 C 412.773082 86.471211 403.273989 95.90781 391.587605 95.90781 L 105.802396 95.90781 C 94.116012 95.90781 84.679414 86.471211 84.679414 74.722333 L 84.679414 -9.894587 C 84.679414 -21.580971 94.116012 -31.080063 105.802396 -31.080063 Z M 105.802396 -31.080063 " transform="matrix(0.062506,0,0,0.062506,0,13.438783)"/>
</g>
</svg>
